X:13
T:Bezemdans
C:Traditioneel
O:Vlaanderen
Z:Bert Van Vreckem <http://flanders.blackmill.net/music/>
M:2/4
L:1/8
K:G
Bc dB|ed d/c/B|dc c/B/A|Bc d|Bc dB|ed d/c/B|dc c/B/A|GB G2:|
|:BG ee|d/c/B d2|dc c/B/A|ed d/c/B|BG ee|d/c/B d2|dc c/B/A|GB G2:|

